X:207
T:Duke of Marlborough
R:
M:4/4
K:D
D2 F2 F>G F>E | D2 F2 F4 | C2 E2 E>D E>D | C2 E2 E4 |
D2 F2 F>G F>E | D2 F2 F2 d2 | c>B A>F G2 E2 | D4 D4 :|
d4 d3 e | d2 f>f e2 d>d | c2 A2 A2 B2 | c2 d2 e4 |
d4 d3 e | d2 f>f e2 d>d | c2 A>F G2 E2 | D4 D4 :|
